mobile/20/svg/bookmark-fill-20.svg

<svg width="20" height="20" viewBox="0 0 20 20" fill="none" xmlns="http://www.w3.org/2000/svg">
<path d="M5.92601 17.5C5.67201 17.5 5.41901 17.421 5.20301 17.263C4.79301 16.965 4.60901 16.455 4.73401 15.963L5.73101 12.048L2.62301 9.467C2.23301 9.143 2.08201 8.622 2.23901 8.14C2.39501 7.658 2.82401 7.325 3.33001 7.292L7.36201 7.03L8.85701 3.276C9.04301 2.804 9.49201 2.5 10 2.5C10.508 2.5 10.956 2.804 11.144 3.276L12.639 7.03L16.671 7.291C17.178 7.324 17.607 7.657 17.763 8.14C17.92 8.622 17.768 9.143 17.377 9.467L14.269 12.048L15.266 15.964C15.391 16.455 15.207 16.966 14.797 17.264C14.387 17.562 13.846 17.58 13.416 17.309L10 15.149L6.58501 17.308C6.38101 17.436 6.15301 17.5 5.92601 17.5Z" fill="black"/>
</svg>

<svg width="20" height="20" fill="none" xmlns="http://www.w3.org/2000/svg"><path d="M5.926 17.5c-.254 0-.507-.079-.723-.237a1.225 1.225 0 0 1-.469-1.3l.997-3.915-3.108-2.581a1.224 1.224 0 0 1-.384-1.327 1.225 1.225 0 0 1 1.091-.848l4.032-.262 1.495-3.754A1.22 1.22 0 0 1 10 2.5c.508 0 .956.304 1.144.776l1.495 3.754 4.032.261c.507.033.936.366 1.092.849a1.223 1.223 0 0 1-.386 1.327l-3.108 2.581.997 3.916a1.226 1.226 0 0 1-.469 1.3c-.41.298-.951.316-1.381.045L10 15.149l-3.415 2.159a1.238 1.238 0 0 1-.659.192z" fill="#000"/></svg>
